X:1
T:Title
%%score { ( 1 3 ) | ( 2 4 ) } ( 5 6 ) { 7 | ( 8 9 10 11 ) }
L:1/8
Q:1/4=120
M:4/4
K:C
V:1 treble+8 nm="Part_1"
V:3 treble+8 
V:2 bass 
V:4 bass 
V:5 treble nm="Part_2"
V:6 treble 
V:7 treble nm="Part_3"
V:8 bass 
V:9 bass 
V:10 bass 
V:11 bass 
V:1
 z2[I:staff +1] E,,,[I:staff -1] x5 | z2 [Fe] z x4 | %2
[M:2/2][I:staff +1] .E,,,[I:staff -1] (3:2:2z2[I:staff +1] .[E,,A,][I:staff -1] z2 x3 | %3
[I:staff +1] E,,,[I:staff -1] z2[I:staff +1] [E,,=A,] [E,B,]3/2[I:staff -1] z x3/2 | %4
[I:staff +1] E,,,[I:staff -1] z2[I:staff +1] [E,,B,] E,[I:staff -1] z z x | %5
[M:2/4]!>(! z z2[I:staff +1] [E,,B,] C2!>)![I:staff -1] z x | z4 x8 | z4 x3 | z4 x | z4 x7 | %10
 z4 x4 | z4 x3 | z4 x | z4 | z4 | z4 x2 | z4 x6 |[K:F] z4 x4 |[M:2/4] z4 | z4 | z4 | z4 | z4 x3 | %23
 z4 | z4 |[M:2/4][K:treble+8] z4 | z4 | z4 | z4 | z4 x2 | z4 x4 | z4 x4 | z4 x11/2 | x8 | x8 | x9 | %36
 x9 | x9 | x8 | x4 | x4 | x4 | x4 | x8 | x8 | x8 | x8 | x19/2 | x8 | x9 | x8 | x8 | x8 | x8 | x8 | %55
 x4 | x4 | x4 | x4 | x4 | x4 | x4 | x4 | x4 | x4 | x4 | x4 | x4 | x4 | x4 | x4 | x4 | x4 | x4 | %74
 x4 | x4 | x4 | x4 | x4 | x8 | x4 | x8 |] %82
V:2
 z2 x6 | E,,[E,G,][E,A,]3/2 z x7/2 |[M:2/2] x7/3[I:staff -1] [fe][I:staff +1] z z2 x5/3 | %3
 x z2[I:staff -1] [ge] [Ge][I:staff +1] z x2 | x z2[I:staff -1] [ge] [Ae][I:staff +1] z z2 | %5
[M:2/4] E,, z2 x E,2 E,, x | z4 x8 | z4 x3 | z4 x | z4 x7 | z4 x4 | z4 x3 | z4 x | z4 | z4 | %15
 z4 x2 | z4 x6 |[K:F] z4 x4 |[M:2/4] z4 | z4 | z4 | z4 | z4 x3 | z4 | z4 |[M:2/4][K:bass] z4 | z4 | %27
 z4 | z4 | z4 x2 | z4 x4 | z4 x4 | z4 x11/2 | x8 | x8 | x9 | x9 | x9 | x8 | x4 | x4 | x4 | x4 | %43
 x8 | x8 | x8 | x8 | x19/2 | x8 | x9 | x8 | x8 | x8 | x8 | x8 | x4 | x4 | x4 | x4 | x4 | x4 | x4 | %62
 x4 | x4 | x4 | x4 | x4 | x4 | x4 | x4 | x4 | x4 | x4 | x4 | x4 | x4 | x4 | x4 | x4 | x8 | x4 | %81
 x8 |] %82
V:3
 x8 | x [Ee] x6 |[M:2/2] x10/3 z3/2 x19/6 | x11/2 z2 x/ | x6[I:staff +1] E,,, x | %5
[M:2/4] x4[I:staff -1] [ae] z x2 | x12 | x7 | x5 | x11 | x8 | x7 | x5 | x4 | x4 | x6 | x10 | %17
[K:F] x8 |[M:2/4] x4 | x4 | x4 | x4 | x7 | x4 | x4 |[M:2/4][K:treble+8] x4 | x4 | x4 | x4 | x6 | %30
 x8 | x8 | x19/2 | x8 | x8 | x9 | x9 | x9 | x8 | x4 | x4 | x4 | x4 | x8 | x8 | x8 | x8 | x19/2 | %48
 x8 | x9 | x8 | x8 | x8 | x8 | x8 | x4 | x4 | x4 | x4 | x4 | x4 | x4 | x4 | x4 | x4 | x4 | x4 | %67
 x4 | x4 | x4 | x4 | x4 | x4 | x4 | x4 | x4 | x4 | x4 | x4 | x8 | x4 | x8 |] %82
V:4
 x8 | x7/2 E,, x7/2 |[M:2/2] x13/3 .E,, x8/3 | x11/2 E,, x3/2 | x8 |[M:2/4] x4 z x3 | x12 | x7 | %8
 x5 | x11 | x8 | x7 | x5 | x4 | x4 | x6 | x10 |[K:F] x8 |[M:2/4] x4 | x4 | x4 | x4 | x7 | x4 | x4 | %25
[M:2/4][K:bass] x4 | x4 | x4 | x4 | x6 | x8 | x8 | x19/2 | x8 | x8 | x9 | x9 | x9 | x8 | x4 | x4 | %41
 x4 | x4 | x8 | x8 | x8 | x8 | x19/2 | x8 | x9 | x8 | x8 | x8 | x8 | x8 | x4 | x4 | x4 | x4 | x4 | %60
 x4 | x4 | x4 | x4 | x4 | x4 | x4 | x4 | x4 | x4 | x4 | x4 | x4 | x4 | x4 | x4 | x4 | x4 | x4 | %79
 x8 | x4 | x8 |] %82
V:5
 z8 | z8 |[M:4/4] z8 | z8 | z8 |[M:2/4] z4 x4 | z2 .d4 !arpeggio!!^![FGd]2 [FGc]4 | %7
 x !arpeggio!c4- !arpeggio![_DFB]2 | [CEA]4 z |[K:treble+8]!>(! .[B,G]6!>)! z3 ([A-Bf]2 | %10
 [Ace]2 E2) (E2 [Ace]2 | .G2) e2 e2 z | B,,3 A,,2 | A,,2 G,,2 | !arpeggio!!>!F,,2 !arpeggio!F,,2 | %15
[K:F] E,,4[K:treble] [dfab]2 |[M:2/4] e2 c2 c2 B,2 [ea]2 | [egbd']2 z2 z2 z2 | %18
!p!!p! ((!arpeggio![ec']!>!.[ce])) ((((!arpeggio![ec'][ce])))) | ([ag'][ge'] [fd']) x | %20
 ((!arpeggio!!^![gd'][ed'])) ((!arpeggio!!^![eb]([db])) | !^![dec'])[db] !^![ca] x | %22
 E,2 F,,[^F,,^F,][G,,G,] !^![A,,A,].!^![=A,,A,] | B,,[E,G,E]!p!!p! [G,,G,][E,B,D] | %24
 ([E,,E,]/[F,,F,]/.[G,,G,]/!^![A,,A,]) z x/ | z4 | z4 | z4 | z4 | %29
 (3:2:2z2[K:treble] !arpeggio!!^![Af][Af][Af] !^![Fd]/[Fd]/[Fd]/[Fd]/ | %30
 !^![Ge]/[Ge]/[Ge]/G/[K:bass-8] !^!!tenuto![=B,,D,]/!tenuto![G,,D,]/[G,,D,]/ x9/2 | %31
 !^![A,,C,]/[A,,C,]/ [A,,F,]2 !^![=B,,_E,]/[B,,E,]/B,,/[B,,G,]/ x3 | %32
 !^![A,,F,]/[A,,F,]/[A,,F,]/[A,,F,]/ z2 x11/2 | %33
 z (!arpeggio!!tenuto![G,E] [E,G,]) (!arpeggio![G,E][E,G,]) x3 | [CA][=B,G] !^![A,F] z x4 | %35
 !^![G,G][G=Bd] !^![E,E][GBd] x5 | !^![A,A][FAd] E,[GAc] x5 | !^![D,D]2[K:bass-8] !^![D,,D,] z x5 | %38
 z2 [A,,,A,,] [E,A,C]/[E,A,C]/C, [E,A,C]/.[E,A,C]/ x2 | %39
 E,/[F,,F,]/[^F,,^F,]/[G,,G,]/ .[A,,A,][A,,=A,] x4 | z4 | z4 | z4 | z8 | z8 | z8 | z8 | z8 x3/2 | %48
 z8 | z8 x | z8 | z8 | z8 | z8 |[M:4/4] z8 | z4 | z4 | x4 | x4 | x4 | x4 | x4 | x4 | x4 | x4 | x4 | %66
 x4 | x4 | x4 | x4 | x4 | x4 | x4 | x4 | x4 | x4 | x4 | x4 | x4 | x8 | x4 | x4 |] %82
V:6
 x8 | x8 |[M:4/4] x8 | x8 | x8 |[M:2/4] x8 | x12 | z z2 [DFc]2 x2 | x5 |[K:treble+8] x11 | %10
 x2 E2 E2 x2 | x2 e2 e2 x | x5 | x4 | x4 |[K:F] x4[K:treble] z2 |[M:2/4] x10 | x8 | x4 | x4 | x4 | %21
 x4 | E,,2 x5 | x4 | x4 | x4 | x4 | x4 | x4 | x4/3[K:treble] x14/3 | x2[K:bass-8] x6 | x8 | x19/2 | %33
 z x7 | x8 | x9 | x9 | x2[K:bass-8] x7 | x4 C,,2 x2 | E,,2 x6 | x4 | x4 | x4 | x8 | x8 | x8 | x8 | %47
 x19/2 | x8 | x9 | x8 | x8 | x8 | x8 |[M:4/4] x8 | x4 | x4 | x4 | x4 | x4 | x4 | x4 | x4 | x4 | %64
 x4 | x4 | x4 | x4 | x4 | x4 | x4 | x4 | x4 | x4 | x4 | x4 | x4 | x4 | x4 | x8 | x4 | x4 |] %82
V:7
 z8 | z8 |[M:4/4] z8 | z8 | z8 |[M:2/4] z4 x4 | z4 x8 | z4 x3 | z4 x | z4 x7 | z4 x4 | z4 x3 | %12
 z4 x | z4 | z4 | z4 x2 | z4 x6 |[K:F] z4 x4 |[M:2/4] z4 | z4 | z4 | z4 | z4 x3 | z4 | z4 | %25
[M:2/4][K:treble] z4 | z4 | z4 | z4 | ([af'][ge'] [fd']) x3 | %30
!p!!p! (!arpeggio!!^![gd'][ed']) (!arpeggio!!^![eb]([db]) x4 | %31
 [dec'])[I:staff +1] ([E,,E,]3/4[I:staff -1][db][I:staff +1][F,,F,]/.[G,,G,]/[A,,A,])[I:staff -1] z x9/4 | %32
!f!!<(! (gf) x/ =B[I:staff +1] T[e'g']2!p! Te'2 .[e'g']2!<)! | %33
 !^!f2[I:staff -1] x z/8[I:staff +1] [AA,A]4[I:staff -1] x7/8 | (ed) (FG) x4 | %35
[M:4/4] (=BA)[I:staff +1] .[c'f]2[I:staff -1] (E,[I:staff +1] [c'fa]2[I:staff -1] C) x | %36
 (gf)[I:staff +1] (6:4:3[c'g][cgb][I:staff -1] z[I:staff +1] .[c'gb][I:staff -1] x4 | %37
[M:3/4] (e[I:staff +1] [F,B,,D,]2[I:staff -1] D)[I:staff +1] .[F,B,,]2 [B,,,,B,,,][E,,G,,D,]E,, | %38
[M:4/4] A,,,[I:staff -1] C/e/ a/(c/!>!e/)a/ x4 | !arpeggio!e2- [ce] (!arpeggio![ec'] .[ce]) x3 | %40
 [af'][ge'][fd'] x5 | ((!arpeggio![gd'][ed'])) x d x4 |!p! (e!p![ce]) (!arpeggio![ec']2 [ce]) x3 | %43
[M:3/4] ([af'][fe']) x6 | !arpeggio!d'2- d'2 ((!arpeggio![e=b][db])) x2 | %45
[M:2/4] ([ec'] [d=b][I:staff +1] e[I:staff -1][Ca]) z z x2 |!p!!mf! z ([Af] z [Fd] (z) .[Fd] x2 | %47
[I:staff +1] !^!G,2[I:staff -1] [Ge]/) z [Ge]3/2[I:staff +1] E,,,[I:staff -1] G3/2 (z .[E=B]) | %48
[I:staff +1] !^![A,,,A,][I:staff -1] [fA]3/4z.[FA]3/4!p!z!p![Af]3/4(.[Fd]/ x9/4 | %49
[M:2/4][I:staff +1] !^!A,,,2[I:staff -1] ([ge]3/4 z) .[Gc]3/4) [Gd]/ z .[Ge]/ x5/2 | %50
!p! z .!tenuto![Af]3/4[I:staff +1] [F,,A,][I:staff -1]!^!a3/4!tenuto![Fc].F/!p!!p! x3 | %51
[M:2/4] !>![Ge]3/4 z/8 !tenuto![Ge]/[I:staff +1] !^!E,,,2[I:staff -1] g/ z .E/ x21/8 | %52
[I:staff +1] !^![D,,D]2 [FAd]!^![D,D][I:staff -1] z2 x2 | %53
!f! !^![Af]!tenuto![Af][I:staff +1] .!^![F,,F][I:staff -1] [fd][I:staff +1].F,[I:staff -1].[fd] x2 | %54
[M:4/4] !>!!^![Ge]/[Ge]/([Ge]/G/ z2 [G_B]3/4)[EB]/([EB]/ x9/4 | %55
 (!^![FA]/[FA]/)[FA]/[FA]/) (!^!!tenuto![Af]/A/([F_d]/) x9/2[K:bass-8] | %56
 !^![=B,,G,]/)[B,,G,][B,,E,] !^![D,,E,,B,,]2 g'2 x3/2 | z4 | z4 | z4 | z4 | z4 | z4 | z4 | z4 | %65
 z4 | z4 | z4 | z4 | %69
 [d''e''c'''][I:staff +1] [E,E]/[I:staff -1][d''=b''][I:staff +1][F,F]/[G,G]/[I:staff -1][c''a''][I:staff +1] [EAc]/[EAc]/[I:staff -1] x5/2 | %70
 (!arpeggio![e''c'''][c''e''])[K:bass-8] [E,G,]2 x4 | [CA][=B,G][A,^F] z!>(! x4 | %72
!p!!>(! !arpeggio![=B,F-]!p!G, (!arpeggio![G,D] F,2)!>)! x3 | %73
 [G,E][I:staff +1] [E,E]/[I:staff -1][F,D][I:staff +1]F/[_G,G]/[I:staff -1] [E,C](G,/_G/) x5/2 | %74
 (D/(3F/(D/) [=B,D]/A,/) G,2 D,/(.=B,,/ x3 | !^!A,,!p!F!p! F) (D/D/ (A,/)F,/ (E,/)D,/ C,/) x3/2 | %76
!p! G2!p! z2!p!!p! F,2 x2 | C,/-C,<_D, z x9/2!p! | %78
 (a'/([a'_c'']/4) [a'=b'c'']/c''/[c''c''e'']/) [d''e'']4 x7/4 | %79
[M:4/4] !^!!tenuto!a'' z3/2 z z/ [e'c'']/4 c''2 z [c'a']/4 x/ | %80
 [c'a'] z (3:2:2z/ [ec']/4[ec'] z/ z/ x7/2 |!p! (3:2:2a2- a x5/6 z x25/6 |] %82
V:8
 z8 | z8 |[M:4/4] z8 | z8 | z8 |[M:2/4] z4 x4 | z4 x8 | z4 x3 | z4 x | z4 x7 | z4 x4 | z4 x3 | %12
 z4 x | z4 | z4 | z4 x2 | z4 x6 |[K:F] z4 x4 |[M:2/4] z4 | z4 | z4 | z4 | z4 x3 | z4 | z4 | %25
[M:2/4][K:bass] z4 | z4 | z4 | z4 | E,,/F,,/^F,,/[G,,G,]/ [A,,A,].[=A,,A,] x2 | %30
 [B,,B,][E,G,D] [G,,G,][E,B,E] x4 | x11/4[I:staff -1] [ca]e[I:staff +1] x13/4 | %32
 !arpeggio!!wedge!c2 x15/2[K:treble+8] | F[cf] [cf] x5 | [B,B]2 G2 x4 |[M:4/4] x7 [cfa].[cf] | %36
 x2/3 [Gg]/[ceb]/(6:4:3[ceb]/!p! .[ceb]/ z/[I:staff -1] (=B,d)[I:staff +1] x13/3 | %37
[M:3/4] x3 [F,,B,,D,]2 x D,2 x |[M:4/4] z x .[E,,A,,] z x4 | z [E,,A,,] C,,4 x2[K:treble+8] | %40
 c2 [Ff].F x4 | [Gg][ceb] e2 x4 | [F,F][cfa][A,A][cf] x4 | %43
[M:3/4] ([Cc]/4D/[Ee]/) !^![Ff].[Ff] x19/4 |[I:staff -1] !arpeggio!Ge[I:staff +1] x6 | %45
[M:2/4] x z2 x5[K:treble] | x2 [F,,F,] x [F,A,]2 x2 | G,,2 x9/2[K:bass-8] z/4 x11/4 | %48
 x7/4 [F,A,]2 x17/4 |[M:2/4] x11/4 !^![G,,G,] x3/4 F, x7/2 | [D,,D,] x7/4 F, x17/4 | %51
[M:2/4] x7/4 [G,B,D] x21/4 | x8 | x [FA]2 x5 |[M:4/4] [G,G]2[K:bass-8] x6 | x T[F,A,]2 [F,A,D] x4 | %56
 z8 | z4 | z4 | z4 | z4 | z4 | z4 | z4 | z4 | z4 | z4 | z4 | z4 | z!p! x3/2!p! .[A,A] x9/2 | %70
 [A,,A,]2 [EAc]/[EAc]/ x5 | [E,E]/ [F,F]/4 ^F,2 !^![G,G]/ [A,A]!arpeggio![A,_A] x11/4 | %72
 [=B,=B] [EGd]/.[EGd]/ [G,G] [EBd]/.[EBd]/ x4 | z!p! x7[K:treble] | %74
 !tenuto![Ff][c'f']!tenuto![Ga][I:staff -1] F,, E,[I:staff +1] x3 | %75
 [Bb] x2 [d'g'b'] [Gg][d'g'b'] x2 |[I:staff -1] =B,,,/(G/ E/)D A,2 E,/D,/[I:staff +1] x5/2 | %77
 [ff'][c'f'][I:staff -1] F,,3/4[I:staff +1][K:bass-8] [E,G,CE] x17/4 | %78
 [A,,A,] x3/4 !^![E,E] d2 x13/4[K:treble+8] | %79
[M:4/4][K:treble] x z3/2 x3/2 [fc'f']/4[fc'f'] z7/4 z | %80
[K:bass-8] [A,,E,A,] z z z x/3 [A,,C,E,A,]/4 x41/12 | %81
[K:bass][I:staff -1] (3:2:2[Ce]2- !>![ce][I:staff +1] x6 |] %82
V:9
 x8 | x8 |[M:4/4] x8 | x8 | x8 |[M:2/4] x8 | x12 | x7 | x5 | x11 | x8 | x7 | x5 | x4 | x4 | x6 | %16
 x10 |[K:F] x8 |[M:2/4] x4 | x4 | x4 | x4 | x7 | x4 | x4 |[M:2/4][K:bass] x4 | x4 | x4 | x4 | %29
 x =F,2 x3 | x8 | x15/4[I:staff -1] e x13/4 | x M[EG]3/2.E[I:staff +1][K:treble+8] x6 | %33
 x2[I:staff -1] E A x4 | x[I:staff +1] d'2 x5 |[M:4/4] x9 | x13/3 [cgb] x11/3 | %37
[M:3/4] x4[I:staff -1] F, x4 |[M:4/4] x8 | x2 z x5[I:staff +1][K:treble+8] | C/D/D/[Ee]/ x6 | %41
 x2 z [cg] x4 | x8 |[M:3/4] x8 | [Gg]e .[Ee][cg] x4 |[M:2/4] x5[K:treble] x3 | x8 | %47
 x5[K:bass-8] x9/2 | x7/2 [F,,F,]2 x5/2 |[M:2/4] x9/2 z/ D,,4 | x5/2 D2 x7/2 |[M:2/4] x8 | x8 | %53
 x8 |[M:4/4] x2[K:bass-8] x6 | x2 z2 x4 | x5/2 !^![F,,F,] z x7/2 | x4 | x4 | x4 | x4 | x4 | x4 | %63
 x4 | x4 | x4 | x4 | x4 | x4 | x8 | x [EAc]/[EAc]/ x6 | x8 | x8 | x8[K:treble] | x4 [c'f'] x3 | %75
 x7/2[I:staff -1] =B,,2 x5/2 |[I:staff +1] z2 [Bc'][I:staff -1] G,,2 x3 | %77
 x11/4[I:staff +1][K:bass-8] x21/4 | x3/4 [E,,A,,_C,] x25/4[K:treble+8] | %79
[M:4/4][K:treble] x17/4[I:staff -1] e x11/4 |[I:staff +1][K:bass-8] x7/3 !arpeggio![A,EA]2 x11/3 | %81
[K:bass] A,,2- A,,3/2 z2 x5/2 |] %82
V:10
 x8 | x8 |[M:4/4] x8 | x8 | x8 |[M:2/4] x8 | x12 | x7 | x5 | x11 | x8 | x7 | x5 | x4 | x4 | x6 | %16
 x10 |[K:F] x8 |[M:2/4] x4 | x4 | x4 | x4 | x7 | x4 | x4 |[M:2/4][K:bass] x4 | x4 | x4 | x4 | x6 | %30
 x8 | x8 | x7/2[K:treble+8] x6 | x8 | x2 G,2 x4 |[M:4/4] x9 | x9 |[M:3/4] x9 |[M:4/4] x8 | %39
 x8[K:treble+8] | x8 | x8 | x8 |[M:3/4] x8 | x c2 x5 |[M:2/4] x5[K:treble] x3 | x8 | %47
 x5[K:bass-8] x9/2 | x8 |[M:2/4] x9 | x5/2 z2 x7/2 |[M:2/4] x8 | x8 | x8 |[M:4/4] x2[K:bass-8] x6 | %55
 x8 | x7/2[I:staff -1] [g'e'']4 x/ | x4 | x4 | x4 | x4 | x4 | x4 | x4 | x4 | x4 | x4 | x4 | x4 | %69
 x8 | x3/2[I:staff +1] [C,C] x11/2 | x8 | x8 | x8[K:treble] | x8 | x8 | [Bc']2 x6 | %77
 x11/4[K:bass-8] x21/4 | x5/4[I:staff -1] [_cd''e'']/e''/ x/ (_f''/g''/g''/) x15/4[K:treble+8] | %79
[M:4/4][I:staff +1][K:treble] x7 z |[K:bass-8] x5/2 [A,EA] z/ x4 | %81
[K:bass] [C,,E,,]4- .[C,,E,,]3 x |] %82
V:11
 x8 | x8 |[M:4/4] x8 | x8 | x8 |[M:2/4] x8 | x12 | x7 | x5 | x11 | x8 | x7 | x5 | x4 | x4 | x6 | %16
 x10 |[K:F] x8 |[M:2/4] x4 | x4 | x4 | x4 | x7 | x4 | x4 |[M:2/4][K:bass] x4 | x4 | x4 | x4 | x6 | %30
 x8 | x8 | x7/2[K:treble+8] x6 | x8 | x8 |[M:4/4] x9 | x9 |[M:3/4] x9 |[M:4/4] x8 | %39
 x8[K:treble+8] | x8 | x8 | x8 |[M:3/4] x8 | x8 |[M:2/4] x5[K:treble] x3 | x8 | x5[K:bass-8] x9/2 | %48
 x8 |[M:2/4] x9 | x8 |[M:2/4] x8 | x8 | x8 |[M:4/4] x2[K:bass-8] x6 | x8 | x8 | x4 | x4 | x4 | x4 | %61
 x4 | x4 | x4 | x4 | x4 | x4 | x4 | x4 | x8 | x8 | x8 | x8 | x8[K:treble] | x8 | x8 | %76
 x [c'e'a'c''] x6 | x11/4[K:bass-8] x21/4 | x8[K:treble+8] |[M:4/4][K:treble] x8 | %80
[K:bass-8] x3[I:staff -1] z x/3 [cea] x8/3 |[I:staff +1][K:bass] x8 |] %82

